symbols/web/table_bar/materialsymbolssharp/table_bar_wght700grad200fill1_24px.svg

<svg xmlns="http://www.w3.org/2000/svg" height="24" width="24"><path d="m4.8 20.7 2.55-6.4h2.95v-2.25q-4.1-.225-6.65-1.438Q1.1 9.4 1.1 7.7q0-1.9 3.1-3.15T12 3.3q4.7 0 7.8 1.25 3.1 1.25 3.1 3.15 0 1.725-2.55 2.925-2.55 1.2-6.65 1.425v2.25h2.95l2.55 6.4h-3.475l-1.2-3h-5.05l-1.2 3Z"/></svg>

<svg xmlns="http://www.w3.org/2000/svg" height="24" width="24"><path d="M4.8 20.7 7.35 14.3H10.3V12.05Q6.2 11.825 3.65 10.612Q1.1 9.4 1.1 7.7Q1.1 5.8 4.2 4.55Q7.3 3.3 12 3.3Q16.7 3.3 19.8 4.55Q22.9 5.8 22.9 7.7Q22.9 9.425 20.35 10.625Q17.8 11.825 13.7 12.05V14.3H16.65L19.2 20.7H15.725L14.525 17.7H9.475L8.275 20.7Z"/></svg>
